src/images/stand-for-ungoogleyourlife.svg

<?xml version="1.0" encoding="UTF-8" standalone="no"?>
<svg width="130px" height="130px" viewBox="0 0 130 130" version="1.1" xmlns="http://www.w3.org/2000/svg" xmlns:xlink="http://www.w3.org/1999/xlink" xmlns:sketch="http://www.bohemiancoding.com/sketch/ns">
    <!-- Generator: Sketch 3.4.2 (15855) - http://www.bohemiancoding.com/sketch -->
    <title>stand-for-ungoogleyourlife</title>
    <desc>Created with Sketch.</desc>
    <defs></defs>
    <g id="ICONS" stroke="none" stroke-width="1" fill="none" fill-rule="evenodd" sketch:type="MSPage">
        <g id="Artboard-3" sketch:type="MSArtboardGroup" transform="translate(-825.000000, -613.000000)">
            <g id="ungoogle" sketch:type="MSLayerGroup" transform="translate(825.000000, 613.000000)">
                <path d="M25,92 L10.9906302,92 C4.92169758,92 0,87.0748137 0,81.0046567 L0,48.9953433 C0,42.9253881 4.92564472,38 10.9906302,38 L33,38 L33,8.99845994 C33,4.03149408 37.0280461,0 41.9943126,0 L88.0056874,0 C92.9735526,0 97,4.02870535 97,8.99845994 L97,38 L119.00937,38 C125.078302,38 130,42.9251863 130,48.9953433 L130,81.0046567 C130,87.0746119 125.074355,92 119.00937,92 L105,92 L105,119.004196 C105,125.077827 100.077698,130 94.0023133,130 L35.9976867,130 C29.9266951,130 25,125.071321 25,119.004196 L25,92 Z" id="Shape" fill="#05486B" sketch:type="MSShapeGroup"></path>
                <g id="Rectangle-85-+-Shape" transform="translate(34.000000, 1.000000)" sketch:type="MSShapeGroup">
                    <rect id="Mask" fill="#FFFFFF" transform="translate(31.000000, 20.500000) scale(1, -1) translate(-31.000000, -20.500000) " x="1" y="1" width="60" height="39" rx="10"></rect>
                    <rect id="Mask" fill="#FFFFFF" transform="translate(31.000000, 30.000000) scale(1, -1) translate(-31.000000, -30.000000) " x="1" y="21" width="60" height="18"></rect>
                    <path d="M0,38 L0,38 L62,38 L60,40 L60,7.99845994 C60,4.68518322 57.3163217,2 54.0056874,2 L7.99431262,2 C4.6854752,2 2,4.68777397 2,7.99845994 L2,40 L0,38 Z M0,40 L0,40 L0,7.99845994 C0,3.58493529 3.57917567,0 7.99431262,0 L54.0056874,0 C58.42131,0 62,3.58103249 62,7.99845994 L62,40 L0,40 Z" id="Shape" fill="#05486B"></path>
                    <path d="M31.6061315,25.8108494 L31.6061315,30.8377568 L43.7673557,30.8377568 C43.1739177,37.8868145 37.3090945,40.893039 31.7732744,40.893039 C24.6907587,40.893039 18.5102864,35.3203858 18.5102864,27.5097198 C18.5102864,19.9009754 24.4018172,14.0411417 31.7888294,14.0411417 C37.4881238,14.0411417 40.8463903,17.6742621 40.8463903,17.6742621 L44.3660766,14.0294021 C44.3660766,14.0294021 39.8483754,9 31.6087729,9 C21.1169234,8.99985325 13,17.8550523 13,27.4200585 C13,36.7925347 20.6351585,45.9315392 31.8762896,45.9315392 C41.7629615,45.9315392 49,39.1589496 49,29.1435821 C49,27.0307431 48.6933023,25.8095287 48.6933023,25.8095287 L31.6061315,25.8108494 Z" id="Shape" fill="#3B82F8"></path>
                    <path d="M31.6061315,30.8377568 L43.7673557,30.8377568 C43.1739177,37.8868145 37.3090945,40.893039 31.7732744,40.893039 C24.6907587,40.893039 18.5102864,35.3203858 18.5102864,27.5097198 C18.5102864,19.9009754 24.4018172,14.0411417 31.7888294,14.0411417 C37.4881238,14.0411417 40.8463903,17.6742621 40.8463903,17.6742621 L44.3660766,14.0294021 C44.3660766,14.0294021 39.8483754,9 31.6087729,9 C21.1169234,8.99985325 13,17.8550523 13,27.4200585 C13,36.7925347 20.6351585,45.9315392 31.8762896,45.9315392 C41.7629615,45.9315392 49,39.1589496 49,29.1435821 C49,27.0307431 48.6933023,25.8095287 48.6933023,25.8095287 L31.6061315,25.8108494 L31.6061315,30.8377568 Z M29.6061315,25.8108494 L29.6061315,23.8110039 L31.6059769,23.8108494 L48.6931477,23.8095287 L50.2530967,23.8094081 L50.6330652,25.3223736 C50.6892296,25.5460103 50.7610323,25.914357 50.8287618,26.4173372 C50.9362776,27.2157835 51,28.12799 51,29.1435821 C51,40.1653795 42.9700731,47.9315392 31.8762896,47.9315392 C20.0750155,47.9315392 11,38.466625 11,27.4200585 C11,16.4738036 20.2830739,6.99984159 31.6087729,7 C35.5866816,7 39.0927283,8.04480708 42.0836527,9.78634768 C43.8986286,10.8431629 45.1588631,11.9190854 45.8539529,12.6929051 L47.0987548,14.0787005 L45.8047787,15.4186955 L42.2850924,19.0635555 L40.8146133,20.5863306 L39.3777139,19.0318297 C39.3269161,18.9768743 39.1802383,18.8353479 38.9432576,18.6354988 C38.522426,18.2806058 38.0208431,17.9210377 37.4446484,17.5838254 C35.7948669,16.618307 33.9032622,16.0411417 31.7888294,16.0411417 C25.4702358,16.0411417 20.5102864,21.0420585 20.5102864,27.5097198 C20.5102864,33.9778601 25.5518682,38.893039 31.7732744,38.893039 C35.9756538,38.893039 39.3764078,37.1122619 40.9184836,33.9087956 C41.2330434,33.2553377 41.3345337,32.8377571 41.3345337,32.8377571 C39.7198486,32.8377571 31.6061315,32.8377568 31.6061315,32.8377568 L29.6061315,32.8377568 L29.6061315,30.8377568 L29.6061315,25.8108494 Z" id="Shape" fill="#05486B"></path>
                </g>
                <rect id="Rectangle-84" fill="#E9E9EB" sketch:type="MSShapeGroup" x="2" y="40" width="126" height="50" rx="10"></rect>
                <path d="M2,47.0063866 C2,43.6891509 4.69303423,41 8,41 L14,41 C14,41 8,43 8,49 L8,80 C8,88 14,89 14,89 L8,89 C4.6862915,89 2,86.3164587 2,82.9936134 L2,47.0063866 Z" id="Rectangle-74" fill="#D3D3D8" sketch:type="MSShapeGroup"></path>
                <path d="M116,47.0063866 C116,43.6891509 118.693034,41 122,41 L128,41 C128,41 122,43 122,49 L122,80 C122,88 128,89 128,89 L122,89 C118.686292,89 116,86.3164587 116,82.9936134 L116,47.0063866 Z" id="Rectangle-74" fill="#F4F3F5" sketch:type="MSShapeGroup" transform="translate(122.000000, 65.000000) scale(-1, 1) translate(-122.000000, -65.000000) "></path>
                <path d="M3,48.9953433 L3,48.9953433 L3,81.0046567 C3,85.4184351 6.57902789,89 10.9906302,89 L119.00937,89 C123.417536,89 127,85.4177227 127,81.0046567 L127,48.9953433 C127,44.5815649 123.420972,41 119.00937,41 L10.9906302,41 C6.58246398,41 3,44.5822773 3,48.9953433 L3,48.9953433 Z M1,48.9953433 C1,43.4750676 5.48053479,39 10.9906302,39 L119.00937,39 C124.527043,39 129,43.4784969 129,48.9953433 L129,81.0046567 C129,86.5249324 124.519465,91 119.00937,91 L10.9906302,91 C5.47295749,91 1,86.5215031 1,81.0046567 L1,48.9953433 L1,48.9953433 Z" id="Shape" fill="#05486B" sketch:type="MSShapeGroup"></path>
                <path d="M26,69 L26,89 L13,89 L20,69 L26,69 Z" id="Path-82" fill="#D3D3D8" sketch:type="MSShapeGroup"></path>
                <path d="M20,71 L110,71 L110,73 L20,73 L20,71 Z M2,55 L128,55 L128,57 L2,57 L2,55 Z M20,67 L110,67 L110,69 L20,69 L20,67 Z M30,52.9999998 L30,41 L32,41 L32,50.9999996 L98,51 L98,41 L100,41 L100,53 L30,52.9999998 Z M119,49 C120.104569,49 121,48.1045695 121,47 C121,45.8954305 120.104569,45 119,45 C117.895431,45 117,45.8954305 117,47 C117,48.1045695 117.895431,49 119,49 Z M119,51 C116.790861,51 115,49.209139 115,47 C115,44.790861 116.790861,43 119,43 C121.209139,43 123,44.790861 123,47 C123,49.209139 121.209139,51 119,51 Z M109,49 C110.104569,49 111,48.1045695 111,47 C111,45.8954305 110.104569,45 109,45 C107.895431,45 107,45.8954305 107,47 C107,48.1045695 107.895431,49 109,49 Z M109,51 L109,51 C106.790861,51 105,49.209139 105,47 C105,44.790861 106.790861,43 109,43 C111.209139,43 113,44.790861 113,47 C113,49.209139 111.209139,51 109,51 L109,51 Z" id="Rectangle-86" fill="#05486B" sketch:type="MSShapeGroup"></path>
                <rect id="Rectangle-85" fill="#FFFFFF" sketch:type="MSShapeGroup" x="27" y="68" width="76" height="60" rx="10"></rect>
                <rect id="Rectangle-85" fill="#FFFFFF" sketch:type="MSShapeGroup" x="27" y="68" width="76" height="34"></rect>
                <path d="M26,67 L104,67 L104,119.004196 C104,124.524726 99.5262292,129 94.0023133,129 L35.9976867,129 C30.4761168,129 26,124.516172 26,119.004196 L26,67 L26,67 Z M28,69 L28,119.004196 C28,123.414737 31.5838198,127 35.9976867,127 L94.0023133,127 C98.4208612,127 102,123.420955 102,119.004196 L102,69 L28,69 Z" id="Shape" fill="#05486B" sketch:type="MSShapeGroup"></path>
                <g id="cozy-logo" transform="translate(38.000000, 75.000000)" stroke="#05486B" stroke-width="2" sketch:type="MSShapeGroup">
                    <path d="M14.8281753,43 C6.65004901,43 0,36.2877774 0,28.0366549 C0,24.1019036 1.50119031,20.3850598 4.22909957,17.5725877 C6.61868086,15.1112512 9.71404565,13.5791256 13.0625963,13.1805697 C13.4580591,9.80131286 14.9749335,6.67722201 17.4160482,4.26669293 C20.2033329,1.5129316 23.8857303,0 27.7854642,0 C31.6840779,0 35.3675956,1.5129316 38.1548803,4.26556387 C40.5859123,6.66593147 42.0983056,9.77308652 42.503851,13.1342786 C50.0579751,13.8173559 56,20.240541 56,28.0377839 C56,36.2877774 49.3454698,43 41.1707044,43 L14.8281753,43 Z M41.2224148,40.1945026 L41.3358389,40.1945026 C47.8781411,40.1945026 53.2,34.7940984 53.2,28.1556706 C53.2,21.5183922 47.8781411,16.1179879 41.3358389,16.1179879 L41.2167436,16.1179879 C40.3626601,16.1179879 39.6628334,15.4282812 39.6435513,14.5592506 C39.4960999,8.07600676 34.1765095,2.80434783 27.7839271,2.80434783 C21.3913447,2.80434783 16.0694858,8.07830577 15.9231687,14.5615497 C15.9038866,15.414487 15.2267447,16.1018948 14.3851378,16.1214365 C7.99709238,16.270873 2.8,21.6689781 2.8,28.15682 C2.8,34.7952479 8.1218589,40.1956522 14.6641611,40.1956522 L14.7605716,40.1956522 L14.7980016,40.1933531 C14.8320288,40.1933531 14.866056,40.1933531 14.9000833,40.1956522 L41.219012,40.1956522 L41.2224148,40.1945026 Z" id="cozy-black-white" fill="#1FA8F1"></path>
                    <g id="Path-69-+-Path-70-+-Path-70" transform="translate(17.000000, 25.000000)">
                        <path d="M2,2 C2,2 5,5 10,5 C15,5 18,2 18,2" id="Path-69"></path>
                        <path d="M0,3 C2,3 3,1 3,0" id="Path-70" stroke-linecap="round"></path>
                        <path d="M17,3 C19,3 20,1 20,0" id="Path-70" stroke-linecap="round" transform="translate(18.500000, 1.500000) scale(-1, 1) translate(-18.500000, -1.500000) "></path>
                    </g>
                </g>
            </g>
        </g>
    </g>
</svg>

<?xml version="1.0" encoding="utf-8"?>
<!-- Generator: Adobe Illustrator 16.0.4, SVG Export Plug-In . SVG Version: 6.00 Build 0)  -->
<!DOCTYPE svg PUBLIC "-//W3C//DTD SVG 1.1//EN" "http://www.w3.org/Graphics/SVG/1.1/DTD/svg11.dtd">
<svg version="1.1" id="Layer_1" xmlns:sketch="http://www.bohemiancoding.com/sketch/ns"
	 xmlns="http://www.w3.org/2000/svg" xmlns:xlink="http://www.w3.org/1999/xlink" x="0px" y="0px" width="130px" height="130px"
	 viewBox="0 0 130 130" enable-background="new 0 0 130 130" xml:space="preserve">
<title>stand-for-ungoogleyourlife</title>
<desc>Created with Sketch.</desc>
<g id="ICONS" sketch:type="MSPage">
	<g id="Artboard-3" transform="translate(-825.000000, -613.000000)" sketch:type="MSArtboardGroup">
		<g id="ungoogle" transform="translate(825.000000, 613.000000)" sketch:type="MSLayerGroup">
			<path id="Shape" sketch:type="MSShapeGroup" fill="#222222" d="M25,92H10.991C4.922,92,0,87.074,0,81.005v-32.01
				C0,42.925,4.926,38,10.991,38H33V8.999C33,4.031,37.028,0,41.994,0h46.012C92.974,0,97,4.029,97,8.999V38h22.01
				c6.068,0,10.99,4.925,10.99,10.995v32.01C130,87.074,125.074,92,119.01,92H105v27.004c0,6.074-4.922,10.996-10.998,10.996H35.998
				C29.927,130,25,125.071,25,119.004V92z"/>
			<g id="Rectangle-85-_x2B_-Shape" transform="translate(34.000000, 1.000000)" sketch:type="MSShapeGroup">
				<path id="Mask" fill="#FFFFFF" d="M61,39V11c0-5.523-4.477-10-10-10H11C5.477,1,1,5.477,1,11v28H61z"/>
				<path id="Shape_1_" fill="#222222" d="M0,38L0,38h62l-2,2V7.999C60,4.685,57.316,2,54.006,2H7.994C4.686,2,2,4.688,2,7.999V40
					L0,38z M0,40L0,40V7.999C0,3.585,3.579,0,7.994,0h46.012C58.422,0,62,3.581,62,7.999V40H0z"/>
				<path id="Shape_2_" fill="#3B82F8" d="M31.605,25.811v5.027h12.162c-0.594,7.049-6.459,10.055-11.994,10.055
					c-7.083,0-13.263-5.573-13.263-13.383c0-7.609,5.892-13.469,13.279-13.469c5.699,0,9.057,3.633,9.057,3.633l3.521-3.645
					c0,0-4.519-5.029-12.757-5.029C21.117,9,13,17.855,13,27.42c0,9.373,7.635,18.512,18.877,18.512
					C41.764,45.932,49,39.159,49,29.144c0-2.113-0.307-3.334-0.307-3.334L31.605,25.811z"/>
				<path id="Shape_3_" fill="#222222" d="M31.605,30.838h12.162c-0.594,7.049-6.459,10.055-11.994,10.055
					c-7.083,0-13.263-5.573-13.263-13.383c0-7.609,5.892-13.469,13.279-13.469c5.699,0,9.057,3.633,9.057,3.633l3.521-3.645
					c0,0-4.519-5.029-12.757-5.029C21.117,9,13,17.855,13,27.42c0,9.373,7.635,18.512,18.877,18.512
					C41.764,45.932,49,39.159,49,29.144c0-2.113-0.307-3.334-0.307-3.334l-17.088,0.001V30.838z M29.606,25.811v-2h2l17.088-0.001
					h1.56l0.38,1.513c0.057,0.224,0.129,0.592,0.195,1.095C50.937,27.216,51,28.128,51,29.144c0,11.022-8.029,18.788-19.123,18.788
					C20.075,47.932,11,38.467,11,27.42C11,16.474,20.283,7,31.609,7c3.978,0,7.483,1.045,10.475,2.786
					c1.814,1.057,3.074,2.133,3.77,2.907l1.245,1.386l-1.294,1.34l-3.52,3.645l-1.471,1.523l-1.437-1.555
					c-0.051-0.055-0.198-0.196-0.435-0.396c-0.421-0.355-0.922-0.715-1.498-1.052c-1.65-0.966-3.542-1.543-5.656-1.543
					c-6.319,0-11.279,5.001-11.279,11.469c0,6.468,5.042,11.383,11.263,11.383c4.202,0,7.604-1.781,9.145-4.984
					c0.314-0.653,0.416-1.071,0.416-1.071c-1.614,0-9.729,0-9.729,0h-2v-2V25.811z"/>
			</g>
			<path id="Rectangle-84" sketch:type="MSShapeGroup" fill="#E9E9EB" d="M12,40h106c5.523,0,10,4.477,10,10v30
				c0,5.523-4.477,10-10,10H12C6.477,90,2,85.523,2,80V50C2,44.477,6.477,40,12,40z"/>
			<path id="Rectangle-74" sketch:type="MSShapeGroup" fill="#D3D3D8" d="M2,47.006C2,43.689,4.693,41,8,41h6c0,0-6,2-6,8v31
				c0,8,6,9,6,9H8c-3.313,0-6-2.684-6-6.006V47.006z"/>
			<path id="Rectangle-74_1_" sketch:type="MSShapeGroup" fill="#F4F3F5" d="M128,47.006c0-3.317-2.693-6.006-6-6.006h-6
				c0,0,6,2,6,8v31c0,8-6,9-6,9h6c3.313,0,6-2.684,6-6.006V47.006z"/>
			<path id="Shape_4_" sketch:type="MSShapeGroup" fill="#222222" d="M3,48.995L3,48.995v32.01C3,85.418,6.579,89,10.991,89H119.01
				c4.408,0,7.99-3.582,7.99-7.995v-32.01c0-4.414-3.579-7.995-7.99-7.995H10.991C6.583,41,3,44.582,3,48.995L3,48.995z M1,48.995
				C1,43.475,5.48,39,10.991,39H119.01c5.518,0,9.99,4.479,9.99,9.995v32.01c0,5.521-4.48,9.995-9.99,9.995H10.991
				C5.473,91,1,86.521,1,81.005V48.995L1,48.995z"/>
			<path id="Path-82" sketch:type="MSShapeGroup" fill="#D3D3D8" d="M26,69v20H13l7-20H26z"/>
			<path id="Rectangle-86" sketch:type="MSShapeGroup" fill="#222222" d="M20,71h90v2H20V71z M2,55h126v2H2V55z M20,67h90v2H20V67z
				 M30,53V41h2v10h66V41h2v12H30z M119,49c1.104,0,2-0.896,2-2s-0.896-2-2-2s-2,0.896-2,2S117.896,49,119,49z M119,51
				c-2.209,0-4-1.791-4-4s1.791-4,4-4s4,1.791,4,4S121.209,51,119,51z M109,49c1.104,0,2-0.896,2-2s-0.896-2-2-2s-2,0.896-2,2
				S107.896,49,109,49z M109,51L109,51c-2.209,0-4-1.791-4-4s1.791-4,4-4s4,1.791,4,4S111.209,51,109,51L109,51z"/>
			<path id="Rectangle-85_1_" sketch:type="MSShapeGroup" fill="#3B82F8" d="M103,68v50c0,5.523-4.477,10-10,10H37
				c-5.523,0-10-4.477-10-10V68H103z"/>
			<path id="Shape_5_" sketch:type="MSShapeGroup" fill="#222222" d="M26,67h78v52.004c0,5.521-4.474,9.996-9.998,9.996H35.998
				c-5.521,0-9.998-4.484-9.998-9.996V67L26,67z M28,69v50.004c0,4.41,3.584,7.996,7.998,7.996h58.004
				c4.419,0,7.998-3.579,7.998-7.996V69H28z"/>
			<g id="cozy-logo" transform="translate(38.000000, 75.000000)" sketch:type="MSShapeGroup">
				<path id="cozy-black-white" fill="#FFFFFF" d="M14.828,43C6.65,43,0,36.287,0,28.037c0-3.936,1.501-7.652,4.229-10.465
					c2.39-2.461,5.485-3.993,8.833-4.392c0.396-3.38,1.913-6.503,4.354-8.914C20.203,1.513,23.886,0,27.785,0
					c3.898,0,7.582,1.513,10.369,4.266c2.432,2.4,3.943,5.508,4.35,8.869C50.059,13.817,56,20.24,56,28.037
					C56,36.287,49.346,43,41.171,43H14.828z"/>
				<path id="cozy-black-white_1_" fill="#222222" d="M14.828,43C6.65,43,0,36.287,0,28.037c0-3.936,1.501-7.652,4.229-10.465
					c2.39-2.461,5.485-3.993,8.833-4.392c0.396-3.38,1.913-6.503,4.354-8.914C20.203,1.513,23.886,0,27.785,0
					c3.898,0,7.582,1.513,10.369,4.266c2.432,2.4,3.943,5.508,4.35,8.869C50.059,13.817,56,20.24,56,28.037
					C56,36.287,49.346,43,41.171,43H14.828z M41.223,40.194h0.113c6.542,0,11.864-5.4,11.864-12.038s-5.322-12.038-11.864-12.038
					h-0.119c-0.854,0-1.555-0.69-1.573-1.56c-0.147-6.482-5.467-11.754-11.86-11.754c-6.392,0-11.714,5.273-11.86,11.757
					c-0.02,0.853-0.697,1.54-1.538,1.56C7.997,16.271,2.8,21.669,2.8,28.156c0,6.639,5.322,12.039,11.864,12.039h0.097l0.037-0.002
					c0.034,0,0.068,0,0.102,0.002h26.319L41.223,40.194z"/>
				<g id="Path-69-_x2B_-Path-70-_x2B_-Path-70" transform="translate(16.000000, 24.000000)">
					<path id="Shape_6_" fill="#222222" d="M18.926,4.375c-0.418,0.314-0.943,0.66-1.572,1.003C15.496,6.392,13.365,7,11,7
						C8.634,7,6.504,6.392,4.646,5.378C4.017,5.035,3.492,4.689,3.074,4.375C2.479,4.762,1.774,5,1,5C0.448,5,0,4.553,0,4
						s0.448-1,1-1c1.092,0,2-1.135,2-2c0-0.553,0.448-1,1-1s1,0.447,1,1c0,0.639-0.194,1.303-0.541,1.903
						c0.339,0.245,0.722,0.487,1.145,0.719C7.183,4.483,8.991,5,11,5c2.01,0,3.816-0.517,5.396-1.378
						c0.423-0.231,0.805-0.474,1.145-0.719C17.194,2.303,17,1.639,17,1c0-0.553,0.447-1,1-1s1,0.447,1,1c0,0.865,0.908,2,2,2
						c0.553,0,1,0.447,1,1s-0.447,1-1,1C20.227,5,19.521,4.762,18.926,4.375z"/>
				</g>
			</g>
		</g>
	</g>
</g>
</svg>
